X: 11656
T: Eileen O'Callaghan's
R: reel
M: 4/4
K: Gmajor
|:G2BG DGBG|G2Bd cAFA|G2BG DGBG|defd cAFA|
G2BG DGBG|G2Bd cAFA|GB~B2 dB~B2|defd cAFA:|
|:dggf g2fg|adfd adfe|dggf gdfe|d2fd cAFA|
dggf g2fa|a2ab agfe|dg~g2 bg~g2|defd cAFA:|

